; G-Code generated by Simplify3D(R) Version 4.1.2
; May 2, 2022 at 9:26:35 PM
; Settings Summary
;   processName,Process1
;   applyToModels,intermediate_conditioner_water
;   profileName,Dremel Idea Builder 3D20 (modified)
;   profileVersion,2017-08-11 08:00:00
;   baseProfile,
;   printMaterial,PLA
;   printQuality,Medium
;   printExtruders,
;   extruderName,Primary Extruder
;   extruderToolheadNumber,0
;   extruderDiameter,0.4
;   extruderAutoWidth,0
;   extruderWidth,0.4
;   extrusionMultiplier,1
;   extruderUseRetract,1
;   extruderRetractionDistance,1
;   extruderExtraRestartDistance,0
;   extruderRetractionZLift,0
;   extruderRetractionSpeed,1200
;   extruderUseCoasting,0
;   extruderCoastingDistance,0.2
;   extruderUseWipe,0
;   extruderWipeDistance,5
;   primaryExtruder,0
;   layerHeight,0.2
;   topSolidLayers,3
;   bottomSolidLayers,3
;   perimeterOutlines,2
;   printPerimetersInsideOut,1
;   startPointOption,2
;   startPointOriginX,0
;   startPointOriginY,0
;   sequentialIslands,0
;   spiralVaseMode,0
;   firstLayerHeightPercentage,90
;   firstLayerWidthPercentage,125
;   firstLayerUnderspeed,0.35
;   useRaft,0
;   raftExtruder,0
;   raftTopLayers,3
;   raftBaseLayers,2
;   raftOffset,3
;   raftSeparationDistance,0.14
;   raftTopInfill,100
;   aboveRaftSpeedMultiplier,0.3
;   useSkirt,1
;   skirtExtruder,0
;   skirtLayers,1
;   skirtOutlines,2
;   skirtOffset,4
;   usePrimePillar,0
;   primePillarExtruder,999
;   primePillarWidth,12
;   primePillarLocation,7
;   primePillarSpeedMultiplier,1
;   useOozeShield,0
;   oozeShieldExtruder,999
;   oozeShieldOffset,2
;   oozeShieldOutlines,1
;   oozeShieldSidewallShape,1
;   oozeShieldSidewallAngle,30
;   oozeShieldSpeedMultiplier,1
;   infillExtruder,0
;   internalInfillPattern,Rectilinear
;   externalInfillPattern,Rectilinear
;   infillPercentage,40
;   outlineOverlapPercentage,20
;   infillExtrusionWidthPercentage,200
;   minInfillLength,5
;   infillLayerInterval,1
;   internalInfillAngles,45,-45
;   overlapInternalInfillAngles,0
;   externalInfillAngles,45,-45
;   generateSupport,0
;   supportExtruder,0
;   supportInfillPercentage,30
;   supportExtraInflation,0
;   supportBaseLayers,0
;   denseSupportExtruder,0
;   denseSupportLayers,0
;   denseSupportInfillPercentage,70
;   supportLayerInterval,1
;   supportHorizontalPartOffset,0.3
;   supportUpperSeparationLayers,1
;   supportLowerSeparationLayers,1
;   supportType,0
;   supportGridSpacing,4
;   maxOverhangAngle,40
;   supportAngles,0
;   temperatureName,Primary Extruder
;   temperatureNumber,0
;   temperatureSetpointCount,1
;   temperatureSetpointLayers,1
;   temperatureSetpointTemperatures,220
;   temperatureStabilizeAtStartup,0
;   temperatureHeatedBed,0
;   fanLayers,1,2
;   fanSpeeds,0,100
;   blipFanToFullPower,0
;   adjustSpeedForCooling,1
;   minSpeedLayerTime,15
;   minCoolingSpeedSlowdown,20
;   increaseFanForCooling,0
;   minFanLayerTime,45
;   maxCoolingFanSpeed,100
;   increaseFanForBridging,1
;   bridgingFanSpeed,100
;   use5D,1
;   relativeEdistances,0
;   allowEaxisZeroing,0
;   independentExtruderAxes,1
;   includeM10123,0
;   stickySupport,1
;   applyToolheadOffsets,0
;   gcodeXoffset,0
;   gcodeYoffset,0
;   gcodeZoffset,0
;   overrideMachineDefinition,1
;   machineTypeOverride,0
;   strokeXoverride,230
;   strokeYoverride,150
;   strokeZoverride,140
;   originOffsetXoverride,115
;   originOffsetYoverride,75
;   originOffsetZoverride,0
;   homeXdirOverride,1
;   homeYdirOverride,1
;   homeZdirOverride,-1
;   flipXoverride,1
;   flipYoverride,-1
;   flipZoverride,1
;   toolheadOffsets,0,0|0,0|0,0|0,0|0,0|0,0
;   overrideFirmwareConfiguration,1
;   firmwareTypeOverride,FlashForge Dreamer Firmware
;   GPXconfigOverride,r2
;   baudRateOverride,115200
;   overridePrinterModels,1
;   printerModelsOverride
;   startingGcode,M104 S[extruder0_temperature] T0,M907 X100 Y100 Z40 A80 ; set motor current,M132 X Y Z A ; recall home offsets,G28 ; home axes,G1 Z100 F3300 ; lower Z,G1 X-110.5 Y-74 F6000 ; move to wait position,M6 T0 ; wait for extruder to reach target temp,G1 Z0.6 F3300 ; position nozzle
;   layerChangeGcode,
;   retractionGcode,
;   toolChangeGcode,
;   endingGcode,M104 S0 T0 ; cool down extruder,G1 Z140 F3300 ; send Z axis to bottom of machine,M107 ; disable cooling fan,G28 X0 Y0 ; home XY axes,M18 ; disable stepper
;   exportFileFormat,g3drem
;   celebration,0
;   celebrationSong,Random Song
;   postProcessing,{PREPEND DREMEL_HEADER},{REPLACE "M106 S0" "M107"}
;   defaultSpeed,3600
;   outlineUnderspeed,0.5
;   solidInfillUnderspeed,0.8
;   supportUnderspeed,0.8
;   rapidXYspeed,7200
;   rapidZspeed,3600
;   minBridgingArea,50
;   bridgingExtraInflation,0
;   bridgingExtrusionMultiplier,1
;   bridgingSpeedMultiplier,0.8
;   useFixedBridgingAngle,0
;   fixedBridgingAngle,0
;   applyBridgingToPerimeters,0
;   filamentDiameters,1.75|1.75|1.75|1.75|1.75|1.75
;   filamentPricesPerKg,46|46|46|46|46|46
;   filamentDensities,1.25|1.25|1.25|1.25|1.25|1.25
;   useMinPrintHeight,0
;   minPrintHeight,0
;   useMaxPrintHeight,0
;   maxPrintHeight,0
;   useDiaphragm,0
;   diaphragmLayerInterval,20
;   robustSlicing,1
;   mergeAllIntoSolid,0
;   onlyRetractWhenCrossingOutline,1
;   retractBetweenLayers,0
;   useRetractionMinTravel,0
;   retractionMinTravel,3
;   retractWhileWiping,0
;   onlyWipeOutlines,1
;   avoidCrossingOutline,0
;   maxMovementDetourFactor,3
;   toolChangeRetractionDistance,12
;   toolChangeExtraRestartDistance,-0.5
;   toolChangeRetractionSpeed,600
;   externalThinWallType,0
;   internalThinWallType,2
;   thinWallAllowedOverlapPercentage,10
;   singleExtrusionMinLength,1
;   singleExtrusionMinPrintingWidthPercentage,50
;   singleExtrusionMaxPrintingWidthPercentage,200
;   singleExtrusionEndpointExtension,0.2
;   horizontalSizeCompensation,0
G90
M82
M107
M104 S220 T0
M907 X100 Y100 Z40 A80 ; set motor current
M132 X Y Z A ; recall home offsets
G28 ; home axes
G1 Z100 F3300 ; lower Z
G1 X-110.5 Y-74 F6000 ; move to wait position
M6 T0 ; wait for extruder to reach target temp
G1 Z0.6 F3300 ; position nozzle
; process Process1
; layer 1, Z = 0.180
M108 T0
G1 E-1.0000 F1200
; feature skirt
; tool H0.180 W0.500
G1 Z0.180 F3600
G1 X29.817 Y-8.522 F7200
G1 E0.0000 F1200
G1 X30.022 Y-9.199 E0.0265 F1260
G1 X30.201 Y-9.630 E0.0439
G1 X32.152 Y-13.281 E0.1988
G1 X32.412 Y-13.669 E0.2163
G1 X35.038 Y-16.869 E0.3712
G1 X35.368 Y-17.199 E0.3887
G1 X38.568 Y-19.826 E0.5436
G1 X38.956 Y-20.085 E0.5610
G1 X42.607 Y-22.036 E0.7159
G1 X43.038 Y-22.215 E0.7334
G1 X47.000 Y-23.417 E0.8883
G1 X47.458 Y-23.508 E0.9058
G1 X51.578 Y-23.914 E1.0607
G1 X52.044 Y-23.914 E1.0781
G1 X56.164 Y-23.508 E1.2330
G1 X56.622 Y-23.417 E1.2505
G1 X60.584 Y-22.215 E1.4054
G1 X61.015 Y-22.036 E1.4229
G1 X64.666 Y-20.085 E1.5778
G1 X65.054 Y-19.826 E1.5952
G1 X68.254 Y-17.199 E1.7501
G1 X68.584 Y-16.869 E1.7676
G1 X71.210 Y-13.669 E1.9225
G1 X71.470 Y-13.281 E1.9400
G1 X73.421 Y-9.630 E2.0949
G1 X73.600 Y-9.199 E2.1123
G1 X74.802 Y-5.237 E2.2672
G1 X74.893 Y-4.780 E2.2847
G1 X75.298 Y-0.660 E2.4396
G1 X75.298 Y-0.193 E2.4571
G1 X74.893 Y3.927 E2.6120
G1 X74.802 Y4.385 E2.6294
G1 X73.600 Y8.346 E2.7843
G1 X73.421 Y8.778 E2.8018
G1 X71.470 Y12.429 E2.9567
G1 X71.210 Y12.817 E2.9742
G1 X68.584 Y16.017 E3.1291
G1 X68.254 Y16.347 E3.1465
G1 X65.054 Y18.973 E3.3014
G1 X64.666 Y19.232 E3.3189
G1 X61.015 Y21.184 E3.4738
G1 X60.584 Y21.363 E3.4913
G1 X56.622 Y22.564 E3.6462
G1 X56.164 Y22.655 E3.6636
G1 X52.044 Y23.061 E3.8185
G1 X51.578 Y23.061 E3.8360
G1 X47.458 Y22.655 E3.9909
G1 X47.000 Y22.564 E4.0084
G1 X43.038 Y21.363 E4.1633
G1 X42.607 Y21.184 E4.1807
G1 X38.956 Y19.232 E4.3356
G1 X38.568 Y18.973 E4.3531
G1 X35.368 Y16.347 E4.5080
G1 X35.038 Y16.017 E4.5255
G1 X32.412 Y12.817 E4.6804
G1 X32.152 Y12.429 E4.6978
G1 X30.201 Y8.778 E4.8527
G1 X30.022 Y8.346 E4.8702
G1 X29.946 Y8.096 E4.8800
G1 X28.200 Y13.853 E5.1051
G1 X28.021 Y14.284 E5.1226
G1 X24.843 Y20.231 E5.3748
G1 X24.584 Y20.619 E5.3923
G1 X20.306 Y25.831 E5.6446
G1 X19.976 Y26.161 E5.6621
G1 X14.764 Y30.438 E5.9143
G1 X14.376 Y30.697 E5.9318
G1 X8.430 Y33.876 E6.1841
G1 X7.999 Y34.054 E6.2016
G1 X1.547 Y36.012 E6.4538
G1 X1.089 Y36.103 E6.4713
G1 X-5.621 Y36.763 E6.7236
G1 X-6.088 Y36.763 E6.7411
G1 X-12.798 Y36.103 E6.9933
G1 X-13.255 Y36.012 E7.0108
G1 X-19.708 Y34.054 E7.2631
G1 X-20.139 Y33.876 E7.2806
G1 X-26.085 Y30.697 E7.5328
G1 X-26.473 Y30.438 E7.5503
G1 X-31.685 Y26.161 E7.8026
G1 X-32.015 Y25.831 E7.8201
G1 X-36.293 Y20.619 E8.0723
G1 X-36.552 Y20.231 E8.0898
G1 X-39.730 Y14.284 E8.3421
G1 X-39.909 Y13.853 E8.3596
G1 X-40.151 Y13.054 E8.3908
G1 X-41.645 Y14.549 E8.4699
G1 X-54.674 Y14.549 E8.9574
G1 X-54.674 Y14.947 E8.9723
G1 X-57.457 Y17.729 E9.1195
G1 X-72.516 Y17.729 E9.6830
G1 X-75.298 Y14.947 E9.8302
G1 X-75.298 Y-11.970 E10.8374
G1 X-72.516 Y-14.753 E10.9846
G1 X-59.487 Y-14.753 E11.4722
G1 X-59.487 Y-15.151 E11.4871
G1 X-56.705 Y-17.933 E11.6343
G1 X-41.645 Y-17.933 E12.1978
G1 X-39.126 Y-15.414 E12.3311
G1 X-36.552 Y-20.231 E12.5354
G1 X-36.293 Y-20.619 E12.5529
G1 X-32.015 Y-25.831 E12.8052
G1 X-31.685 Y-26.161 E12.8226
G1 X-26.473 Y-30.438 E13.0749
G1 X-26.085 Y-30.697 E13.0924
G1 X-20.139 Y-33.876 E13.3447
G1 X-19.708 Y-34.054 E13.3621
G1 X-13.255 Y-36.012 E13.6144
G1 X-12.798 Y-36.103 E13.6319
G1 X-6.088 Y-36.763 E13.8842
G1 X-5.621 Y-36.763 E13.9016
G1 X1.089 Y-36.103 E14.1539
G1 X1.547 Y-36.012 E14.1714
G1 X7.999 Y-34.054 E14.4237
G1 X8.430 Y-33.876 E14.4411
G1 X14.376 Y-30.697 E14.6934
G1 X14.764 Y-30.438 E14.7109
G1 X19.976 Y-26.161 E14.9632
G1 X20.306 Y-25.831 E14.9806
G1 X24.584 Y-20.619 E15.2329
G1 X24.843 Y-20.231 E15.2504
G1 X28.021 Y-14.284 E15.5027
G1 X28.200 Y-13.853 E15.5201
G1 X29.817 Y-8.522 E15.7286
G1 E14.7286 F1200
G1 X30.494 Y-9.030 F7200
G1 E15.7286 F1200
G1 X30.653 Y-9.416 E15.7442 F1260
G1 X32.582 Y-13.024 E15.8973
G1 X32.814 Y-13.371 E15.9129
G1 X35.409 Y-16.533 E16.0660
G1 X35.704 Y-16.828 E16.0816
G1 X38.866 Y-19.424 E16.2347
G1 X39.214 Y-19.656 E16.2503
G1 X42.821 Y-21.584 E16.4033
G1 X43.207 Y-21.744 E16.4190
G1 X47.122 Y-22.931 E16.5720
G1 X47.531 Y-23.013 E16.5877
G1 X51.602 Y-23.414 E16.7407
G1 X52.020 Y-23.414 E16.7564
G1 X56.091 Y-23.013 E16.9094
G1 X56.500 Y-22.931 E16.9250
G1 X60.415 Y-21.744 E17.0781
G1 X60.801 Y-21.584 E17.0937
G1 X64.409 Y-19.656 E17.2468
G1 X64.756 Y-19.424 E17.2624
G1 X67.918 Y-16.828 E17.4155
G1 X68.213 Y-16.533 E17.4311
G1 X70.808 Y-13.371 E17.5842
G1 X71.040 Y-13.024 E17.5998
G1 X72.969 Y-9.416 E17.7529
G1 X73.128 Y-9.030 E17.7685
G1 X74.316 Y-5.116 E17.9216
G1 X74.397 Y-4.706 E17.9372
G1 X74.798 Y-0.635 E18.0903
G1 X74.798 Y-0.218 E18.1059
G1 X74.397 Y3.854 E18.2589
G1 X74.316 Y4.263 E18.2746
G1 X73.128 Y8.178 E18.4276
G1 X72.969 Y8.563 E18.4433
G1 X71.040 Y12.171 E18.5963
G1 X70.808 Y12.518 E18.6120
G1 X68.213 Y15.681 E18.7650
G1 X67.918 Y15.976 E18.7806
G1 X64.756 Y18.571 E18.9337
G1 X64.409 Y18.803 E18.9493
G1 X60.801 Y20.731 E19.1024
G1 X60.415 Y20.891 E19.1180
G1 X56.500 Y22.079 E19.2711
G1 X56.091 Y22.160 E19.2867
G1 X52.020 Y22.561 E19.4398
G1 X51.602 Y22.561 E19.4554
G1 X47.531 Y22.160 E19.6085
G1 X47.122 Y22.079 E19.6241
G1 X43.207 Y20.891 E19.7772
G1 X42.821 Y20.731 E19.7928
G1 X39.214 Y18.803 E19.9459
G1 X38.866 Y18.571 E19.9615
G1 X35.704 Y15.976 E20.1145
G1 X35.409 Y15.681 E20.1302
G1 X32.814 Y12.518 E20.2832
G1 X32.582 Y12.171 E20.2989
G1 X30.653 Y8.563 E20.4519
G1 X30.494 Y8.178 E20.4676
G1 X29.837 Y6.014 E20.5522
G1 X29.753 Y6.870 E20.5843
G1 X29.672 Y7.279 E20.6000
G1 X27.729 Y13.685 E20.8504
G1 X27.569 Y14.070 E20.8660
G1 X24.414 Y19.973 E21.1165
G1 X24.182 Y20.320 E21.1321
G1 X19.935 Y25.495 E21.3825
G1 X19.640 Y25.790 E21.3982
G1 X14.466 Y30.036 E21.6486
G1 X14.119 Y30.268 E21.6642
G1 X8.216 Y33.423 E21.9147
G1 X7.830 Y33.583 E21.9303
G1 X1.425 Y35.526 E22.1808
G1 X1.015 Y35.607 E22.1964
G1 X-5.646 Y36.263 E22.4468
G1 X-6.063 Y36.263 E22.4625
G1 X-12.724 Y35.607 E22.7129
G1 X-13.134 Y35.526 E22.7285
G1 X-19.539 Y33.583 E22.9790
G1 X-19.925 Y33.423 E22.9946
G1 X-25.828 Y30.268 E23.2451
G1 X-26.175 Y30.036 E23.2607
G1 X-31.349 Y25.790 E23.5111
G1 X-31.644 Y25.495 E23.5268
G1 X-35.890 Y20.321 E23.7772
G1 X-36.122 Y19.973 E23.7928
G1 X-39.278 Y14.070 E24.0433
G1 X-39.437 Y13.685 E24.0589
G1 X-39.915 Y12.111 E24.1204
G1 X-41.853 Y14.049 E24.2230
G1 X-55.174 Y14.049 E24.7214
G1 X-55.174 Y14.740 E24.7473
G1 X-57.664 Y17.229 E24.8790
G1 X-72.309 Y17.229 E25.4270
G1 X-74.798 Y14.740 E25.5588
G1 X-74.798 Y-11.763 E26.5504
G1 X-72.309 Y-14.253 E26.6822
G1 X-58.987 Y-14.253 E27.1806
G1 X-58.987 Y-14.944 E27.2065
G1 X-56.498 Y-17.433 E27.3382
G1 X-41.853 Y-17.433 E27.8862
G1 X-39.363 Y-14.944 E28.0180
G1 X-39.363 Y-13.864 E28.0584
G1 X-39.278 Y-14.070 E28.0667
G1 X-36.122 Y-19.973 E28.3172
G1 X-35.890 Y-20.321 E28.3328
G1 X-31.644 Y-25.495 E28.5832
G1 X-31.349 Y-25.790 E28.5989
G1 X-26.175 Y-30.036 E28.8493
G1 X-25.828 Y-30.268 E28.8649
G1 X-19.925 Y-33.423 E29.1154
G1 X-19.539 Y-33.583 E29.1310
G1 X-13.134 Y-35.526 E29.3814
G1 X-12.724 Y-35.607 E29.3971
G1 X-6.063 Y-36.263 E29.6475
G1 X-5.646 Y-36.263 E29.6631
G1 X1.015 Y-35.607 E29.9136
G1 X1.425 Y-35.526 E29.9292
G1 X7.830 Y-33.583 E30.1797
G1 X8.216 Y-33.423 E30.1953
G1 X14.119 Y-30.268 E30.4457
G1 X14.466 Y-30.036 E30.4614
G1 X19.640 Y-25.790 E30.7118
G1 X19.935 Y-25.495 E30.7274
G1 X24.182 Y-20.321 E30.9779
G1 X24.414 Y-19.973 E30.9935
G1 X27.569 Y-14.070 E31.2440
G1 X27.729 Y-13.685 E31.2596
G1 X29.672 Y-7.279 E31.5100
G1 X29.753 Y-6.870 E31.5257
G1 X29.774 Y-6.658 E31.5336
G1 X30.494 Y-9.030 E31.6264
G1 E30.6264 F1200
; feature inner perimeter
G1 X24.805 Y-6.098 F7200
G1 E31.6264 F1200
G1 X25.405 Y0.000 E31.8557 F945
G1 X24.805 Y6.098 E32.0850
G1 X23.026 Y11.963 E32.3143
G1 X20.137 Y17.367 E32.5436
G1 X16.250 Y22.104 E32.7729
G1 X11.513 Y25.992 E33.0022
G1 X6.108 Y28.880 E33.2315
G1 X0.244 Y30.659 E33.4608
G1 X-5.854 Y31.260 E33.6901
G1 X-11.953 Y30.659 E33.9194
G1 X-17.817 Y28.880 E34.1487
G1 X-23.221 Y25.992 E34.3779
G1 X-27.958 Y22.104 E34.6072
G1 X-31.846 Y17.367 E34.8365
G1 X-34.735 Y11.963 E35.0658
G1 X-36.514 Y6.098 E35.2951
G1 X-37.114 Y0.000 E35.5244
G1 X-36.514 Y-6.098 E35.7537
G1 X-34.735 Y-11.963 E35.9830
G1 X-31.846 Y-17.367 E36.2123
G1 X-27.958 Y-22.104 E36.4416
G1 X-23.221 Y-25.992 E36.6709
G1 X-17.817 Y-28.880 E36.9002
G1 X-11.953 Y-30.659 E37.1295
G1 X-5.854 Y-31.260 E37.3588
G1 X0.244 Y-30.659 E37.5881
G1 X6.108 Y-28.880 E37.8174
G1 X11.513 Y-25.992 E38.0467
G1 X16.250 Y-22.104 E38.2760
G1 X20.137 Y-17.367 E38.5053
G1 X23.026 Y-11.963 E38.7346
G1 X24.805 Y-6.098 E38.9639
; feature outer perimeter
G1 X25.298 Y-6.197 F7200
G1 X25.908 Y0.000 E39.1968 F630
G1 X25.298 Y6.197 E39.4298
G1 X23.490 Y12.155 E39.6628
G1 X20.555 Y17.646 E39.8958
G1 X16.605 Y22.459 E40.1288
G1 X11.792 Y26.409 E40.3617
G1 X6.300 Y29.345 E40.5947
G1 X0.342 Y31.152 E40.8277
G1 X-5.854 Y31.762 E41.0607
G1 X-12.051 Y31.152 E41.2937
G1 X-18.009 Y29.345 E41.5266
G1 X-23.501 Y26.409 E41.7596
G1 X-28.314 Y22.459 E41.9926
G1 X-32.264 Y17.646 E42.2256
G1 X-35.199 Y12.155 E42.4586
G1 X-37.006 Y6.197 E42.6915
G1 X-37.617 Y0.000 E42.9245
G1 X-37.006 Y-6.197 E43.1575
G1 X-35.199 Y-12.155 E43.3905
G1 X-32.264 Y-17.646 E43.6235
G1 X-28.314 Y-22.459 E43.8565
G1 X-23.501 Y-26.409 E44.0894
G1 X-18.009 Y-29.345 E44.3224
G1 X-12.051 Y-31.152 E44.5554
G1 X-5.854 Y-31.762 E44.7884
G1 X0.342 Y-31.152 E45.0214
G1 X6.300 Y-29.345 E45.2543
G1 X11.792 Y-26.409 E45.4873
G1 X16.605 Y-22.459 E45.7203
G1 X20.555 Y-17.646 E45.9533
G1 X23.490 Y-12.155 E46.1863
G1 X25.298 Y-6.197 E46.4192
; feature inner perimeter
G1 X0.217 Y-1.208 F7200
G1 X-0.135 Y-2.369 E46.4646 F945
G1 X-0.707 Y-3.439 E46.5101
G1 X-1.477 Y-4.377 E46.5555
G1 X-2.415 Y-5.147 E46.6009
G1 X-3.485 Y-5.719 E46.6463
G1 X-4.647 Y-6.072 E46.6917
G1 X-5.854 Y-6.190 E46.7371
G1 X-7.062 Y-6.072 E46.7825
G1 X-8.223 Y-5.719 E46.8279
G1 X-9.294 Y-5.147 E46.8733
G1 X-10.232 Y-4.377 E46.9187
G1 X-11.002 Y-3.439 E46.9641
G1 X-11.574 Y-2.369 E47.0095
G1 X-11.926 Y-1.208 E47.0550
G1 X-12.045 Y0.000 E47.1004
G1 X-11.926 Y1.208 E47.1458
G1 X-11.574 Y2.369 E47.1912
G1 X-11.002 Y3.439 E47.2366
