; G-Code generated by Simplify3D(R) Version 4.1.2
; Apr 26, 2022 at 9:32:16 PM
; Settings Summary
;   processName,Process1
;   applyToModels,intermediate_conditioner_water
;   profileName,Dremel Idea Builder 3D20 (modified)
;   profileVersion,2017-08-11 08:00:00
;   baseProfile,
;   printMaterial,PLA
;   printQuality,Medium
;   printExtruders,
;   extruderName,Primary Extruder
;   extruderToolheadNumber,0
;   extruderDiameter,0.4
;   extruderAutoWidth,0
;   extruderWidth,0.4
;   extrusionMultiplier,1
;   extruderUseRetract,1
;   extruderRetractionDistance,1
;   extruderExtraRestartDistance,0
;   extruderRetractionZLift,0
;   extruderRetractionSpeed,1200
;   extruderUseCoasting,0
;   extruderCoastingDistance,0.2
;   extruderUseWipe,0
;   extruderWipeDistance,5
;   primaryExtruder,0
;   layerHeight,0.2
;   topSolidLayers,3
;   bottomSolidLayers,3
;   perimeterOutlines,2
;   printPerimetersInsideOut,1
;   startPointOption,2
;   startPointOriginX,0
;   startPointOriginY,0
;   sequentialIslands,0
;   spiralVaseMode,0
;   firstLayerHeightPercentage,90
;   firstLayerWidthPercentage,125
;   firstLayerUnderspeed,0.35
;   useRaft,0
;   raftExtruder,0
;   raftTopLayers,3
;   raftBaseLayers,2
;   raftOffset,3
;   raftSeparationDistance,0.14
;   raftTopInfill,100
;   aboveRaftSpeedMultiplier,0.3
;   useSkirt,1
;   skirtExtruder,0
;   skirtLayers,1
;   skirtOutlines,2
;   skirtOffset,4
;   usePrimePillar,0
;   primePillarExtruder,999
;   primePillarWidth,12
;   primePillarLocation,7
;   primePillarSpeedMultiplier,1
;   useOozeShield,0
;   oozeShieldExtruder,999
;   oozeShieldOffset,2
;   oozeShieldOutlines,1
;   oozeShieldSidewallShape,1
;   oozeShieldSidewallAngle,30
;   oozeShieldSpeedMultiplier,1
;   infillExtruder,0
;   internalInfillPattern,Rectilinear
;   externalInfillPattern,Rectilinear
;   infillPercentage,40
;   outlineOverlapPercentage,20
;   infillExtrusionWidthPercentage,200
;   minInfillLength,5
;   infillLayerInterval,1
;   internalInfillAngles,45,-45
;   overlapInternalInfillAngles,0
;   externalInfillAngles,45,-45
;   generateSupport,0
;   supportExtruder,0
;   supportInfillPercentage,30
;   supportExtraInflation,0
;   supportBaseLayers,0
;   denseSupportExtruder,0
;   denseSupportLayers,0
;   denseSupportInfillPercentage,70
;   supportLayerInterval,1
;   supportHorizontalPartOffset,0.3
;   supportUpperSeparationLayers,1
;   supportLowerSeparationLayers,1
;   supportType,0
;   supportGridSpacing,4
;   maxOverhangAngle,40
;   supportAngles,0
;   temperatureName,Primary Extruder
;   temperatureNumber,0
;   temperatureSetpointCount,1
;   temperatureSetpointLayers,1
;   temperatureSetpointTemperatures,220
;   temperatureStabilizeAtStartup,0
;   temperatureHeatedBed,0
;   fanLayers,1,2
;   fanSpeeds,0,100
;   blipFanToFullPower,0
;   adjustSpeedForCooling,1
;   minSpeedLayerTime,15
;   minCoolingSpeedSlowdown,20
;   increaseFanForCooling,0
;   minFanLayerTime,45
;   maxCoolingFanSpeed,100
;   increaseFanForBridging,1
;   bridgingFanSpeed,100
;   use5D,1
;   relativeEdistances,0
;   allowEaxisZeroing,0
;   independentExtruderAxes,1
;   includeM10123,0
;   stickySupport,1
;   applyToolheadOffsets,0
;   gcodeXoffset,0
;   gcodeYoffset,0
;   gcodeZoffset,0
;   overrideMachineDefinition,1
;   machineTypeOverride,0
;   strokeXoverride,230
;   strokeYoverride,150
;   strokeZoverride,140
;   originOffsetXoverride,115
;   originOffsetYoverride,75
;   originOffsetZoverride,0
;   homeXdirOverride,1
;   homeYdirOverride,1
;   homeZdirOverride,-1
;   flipXoverride,1
;   flipYoverride,-1
;   flipZoverride,1
;   toolheadOffsets,0,0|0,0|0,0|0,0|0,0|0,0
;   overrideFirmwareConfiguration,1
;   firmwareTypeOverride,FlashForge Dreamer Firmware
;   GPXconfigOverride,r2
;   baudRateOverride,115200
;   overridePrinterModels,1
;   printerModelsOverride
;   startingGcode,M104 S[extruder0_temperature] T0,M907 X100 Y100 Z40 A80 ; set motor current,M132 X Y Z A ; recall home offsets,G28 ; home axes,G1 Z100 F3300 ; lower Z,G1 X-110.5 Y-74 F6000 ; move to wait position,M6 T0 ; wait for extruder to reach target temp,G1 Z0.6 F3300 ; position nozzle
;   layerChangeGcode,
;   retractionGcode,
;   toolChangeGcode,
;   endingGcode,M104 S0 T0 ; cool down extruder,G1 Z140 F3300 ; send Z axis to bottom of machine,M107 ; disable cooling fan,G28 X0 Y0 ; home XY axes,M18 ; disable stepper
;   exportFileFormat,g3drem
;   celebration,0
;   celebrationSong,Random Song
;   postProcessing,{PREPEND DREMEL_HEADER},{REPLACE "M106 S0" "M107"}
;   defaultSpeed,3600
;   outlineUnderspeed,0.5
;   solidInfillUnderspeed,0.8
;   supportUnderspeed,0.8
;   rapidXYspeed,7200
;   rapidZspeed,3600
;   minBridgingArea,50
;   bridgingExtraInflation,0
;   bridgingExtrusionMultiplier,1
;   bridgingSpeedMultiplier,0.8
;   useFixedBridgingAngle,0
;   fixedBridgingAngle,0
;   applyBridgingToPerimeters,0
;   filamentDiameters,1.75|1.75|1.75|1.75|1.75|1.75
;   filamentPricesPerKg,46|46|46|46|46|46
;   filamentDensities,1.25|1.25|1.25|1.25|1.25|1.25
;   useMinPrintHeight,0
;   minPrintHeight,0
;   useMaxPrintHeight,0
;   maxPrintHeight,0
;   useDiaphragm,0
;   diaphragmLayerInterval,20
;   robustSlicing,1
;   mergeAllIntoSolid,0
;   onlyRetractWhenCrossingOutline,1
;   retractBetweenLayers,0
;   useRetractionMinTravel,0
;   retractionMinTravel,3
;   retractWhileWiping,0
;   onlyWipeOutlines,1
;   avoidCrossingOutline,0
;   maxMovementDetourFactor,3
;   toolChangeRetractionDistance,12
;   toolChangeExtraRestartDistance,-0.5
;   toolChangeRetractionSpeed,600
;   externalThinWallType,0
;   internalThinWallType,2
;   thinWallAllowedOverlapPercentage,10
;   singleExtrusionMinLength,1
;   singleExtrusionMinPrintingWidthPercentage,50
;   singleExtrusionMaxPrintingWidthPercentage,200
;   singleExtrusionEndpointExtension,0.2
;   horizontalSizeCompensation,0
G90
M82
M107
M104 S220 T0
M907 X100 Y100 Z40 A80 ; set motor current
M132 X Y Z A ; recall home offsets
G28 ; home axes
G1 Z100 F3300 ; lower Z
G1 X-110.5 Y-74 F6000 ; move to wait position
M6 T0 ; wait for extruder to reach target temp
G1 Z0.6 F3300 ; position nozzle
; process Process1
; layer 1, Z = 0.180
M108 T0
G1 E-1.0000 F1200
; feature skirt
; tool H0.180 W0.500
G1 Z0.180 F3600
G1 X9.827 Y-9.715 F7200
G1 E0.0000 F1200
G1 X11.132 Y-12.156 E0.1036 F1260
G1 X11.391 Y-12.544 E0.1210
G1 X13.861 Y-15.554 E0.2667
G1 X14.191 Y-15.884 E0.2842
G1 X17.201 Y-18.354 E0.4298
G1 X17.589 Y-18.613 E0.4473
G1 X21.022 Y-20.448 E0.5930
G1 X21.453 Y-20.627 E0.6105
G1 X25.179 Y-21.757 E0.7561
G1 X25.637 Y-21.848 E0.7736
G1 X29.511 Y-22.230 E0.9193
G1 X29.978 Y-22.230 E0.9367
G1 X33.853 Y-21.848 E1.0824
G1 X34.310 Y-21.757 E1.0999
G1 X38.036 Y-20.627 E1.2456
G1 X38.467 Y-20.448 E1.2630
G1 X41.901 Y-18.613 E1.4087
G1 X42.289 Y-18.354 E1.4262
G1 X45.298 Y-15.884 E1.5718
G1 X45.628 Y-15.554 E1.5893
G1 X48.098 Y-12.544 E1.7350
G1 X48.357 Y-12.156 E1.7524
G1 X50.193 Y-8.722 E1.8981
G1 X50.371 Y-8.291 E1.9156
G1 X51.502 Y-4.566 E2.0613
G1 X51.593 Y-4.108 E2.0787
G1 X51.974 Y-0.233 E2.2244
G1 X51.974 Y0.233 E2.2419
G1 X51.593 Y4.108 E2.3875
G1 X51.502 Y4.566 E2.4050
G1 X50.371 Y8.291 E2.5507
G1 X50.193 Y8.722 E2.5681
G1 X48.358 Y12.156 E2.7138
G1 X48.098 Y12.544 E2.7313
G1 X45.628 Y15.554 E2.8770
G1 X45.298 Y15.884 E2.8944
G1 X42.289 Y18.353 E3.0401
G1 X41.901 Y18.613 E3.0576
G1 X38.467 Y20.448 E3.2032
G1 X38.036 Y20.627 E3.2207
G1 X34.310 Y21.757 E3.3664
G1 X33.853 Y21.848 E3.3838
G1 X29.978 Y22.230 E3.5295
G1 X29.511 Y22.230 E3.5470
G1 X25.637 Y21.848 E3.6927
G1 X25.179 Y21.757 E3.7101
G1 X21.453 Y20.627 E3.8558
G1 X21.022 Y20.448 E3.8733
G1 X17.589 Y18.613 E4.0189
G1 X17.201 Y18.354 E4.0364
G1 X14.191 Y15.884 E4.1821
G1 X13.861 Y15.554 E4.1996
G1 X11.391 Y12.544 E4.3452
G1 X11.132 Y12.156 E4.3627
G1 X9.827 Y9.715 E4.4663
G1 X9.155 Y11.930 E4.5529
G1 X8.977 Y12.361 E4.5703
G1 X6.263 Y17.438 E4.7857
G1 X6.004 Y17.826 E4.8032
G1 X2.351 Y22.277 E5.0186
G1 X2.021 Y22.607 E5.0361
G1 X-2.429 Y26.259 E5.2515
G1 X-2.817 Y26.518 E5.2690
G1 X-7.894 Y29.232 E5.4844
G1 X-8.326 Y29.411 E5.5018
G1 X-13.835 Y31.082 E5.7173
G1 X-14.293 Y31.173 E5.7347
G1 X-20.022 Y31.737 E5.9501
G1 X-20.489 Y31.737 E5.9676
G1 X-26.218 Y31.173 E6.1830
G1 X-26.676 Y31.082 E6.2005
G1 X-32.185 Y29.411 E6.4159
G1 X-32.616 Y29.232 E6.4334
G1 X-37.694 Y26.518 E6.6488
G1 X-38.082 Y26.259 E6.6662
G1 X-42.532 Y22.607 E6.8817
G1 X-42.862 Y22.277 E6.8991
G1 X-46.514 Y17.826 E7.1145
G1 X-46.773 Y17.438 E7.1320
G1 X-49.487 Y12.361 E7.3474
G1 X-49.666 Y11.930 E7.3649
G1 X-51.337 Y6.420 E7.5803
G1 X-51.428 Y5.963 E7.5978
G1 X-51.992 Y0.233 E7.8132
G1 X-51.992 Y-0.233 E7.8306
G1 X-51.428 Y-5.963 E8.0461
G1 X-51.337 Y-6.420 E8.0635
G1 X-49.666 Y-11.930 E8.2789
G1 X-49.487 Y-12.361 E8.2964
G1 X-46.773 Y-17.438 E8.5118
G1 X-46.514 Y-17.826 E8.5293
G1 X-42.862 Y-22.277 E8.7447
G1 X-42.532 Y-22.607 E8.7622
G1 X-38.082 Y-26.259 E8.9776
G1 X-37.694 Y-26.518 E8.9950
G1 X-32.616 Y-29.232 E9.2105
G1 X-32.185 Y-29.411 E9.2279
G1 X-26.676 Y-31.082 E9.4433
G1 X-26.218 Y-31.173 E9.4608
G1 X-20.489 Y-31.737 E9.6762
G1 X-20.022 Y-31.737 E9.6937
G1 X-14.293 Y-31.173 E9.9091
G1 X-13.835 Y-31.082 E9.9266
G1 X-8.326 Y-29.411 E10.1420
G1 X-7.894 Y-29.232 E10.1595
G1 X-2.817 Y-26.518 E10.3749
G1 X-2.429 Y-26.259 E10.3923
G1 X2.021 Y-22.607 E10.6077
G1 X2.351 Y-22.277 E10.6252
G1 X6.004 Y-17.826 E10.8406
G1 X6.263 Y-17.438 E10.8581
G1 X8.977 Y-12.361 E11.0735
G1 X9.155 Y-11.930 E11.0910
G1 X9.827 Y-9.715 E11.1776
G1 E10.1776 F1200
G1 X9.749 Y-8.508 F7200
G1 E11.1776 F1200
G1 X11.561 Y-11.899 E11.3214 F1260
G1 X11.793 Y-12.246 E11.3370
G1 X14.232 Y-15.217 E11.4809
G1 X14.527 Y-15.513 E11.4965
G1 X17.499 Y-17.951 E11.6403
G1 X17.846 Y-18.183 E11.6560
G1 X21.236 Y-19.996 E11.7998
G1 X21.622 Y-20.155 E11.8154
G1 X25.301 Y-21.271 E11.9593
G1 X25.710 Y-21.353 E11.9749
G1 X29.536 Y-21.730 E12.1187
G1 X29.953 Y-21.730 E12.1344
G1 X33.779 Y-21.353 E12.2782
G1 X34.189 Y-21.271 E12.2938
G1 X37.867 Y-20.155 E12.4377
G1 X38.253 Y-19.996 E12.4533
G1 X41.643 Y-18.183 E12.5971
G1 X41.991 Y-17.951 E12.6127
G1 X44.962 Y-15.513 E12.7566
G1 X45.257 Y-15.217 E12.7722
G1 X47.696 Y-12.246 E12.9161
G1 X47.928 Y-11.899 E12.9317
G1 X49.740 Y-8.508 E13.0755
G1 X49.900 Y-8.123 E13.0911
G1 X51.016 Y-4.444 E13.2350
G1 X51.097 Y-4.034 E13.2506
G1 X51.474 Y-0.209 E13.3944
G1 X51.474 Y0.209 E13.4101
G1 X51.097 Y4.034 E13.5539
G1 X51.016 Y4.444 E13.5695
G1 X49.900 Y8.123 E13.7134
G1 X49.740 Y8.508 E13.7290
G1 X47.928 Y11.899 E13.8728
G1 X47.696 Y12.246 E13.8885
G1 X45.257 Y15.217 E14.0323
G1 X44.962 Y15.513 E14.0479
G1 X41.991 Y17.951 E14.1918
G1 X41.643 Y18.183 E14.2074
G1 X38.253 Y19.996 E14.3512
G1 X37.867 Y20.155 E14.3669
G1 X34.189 Y21.271 E14.5107
G1 X33.779 Y21.353 E14.5263
G1 X29.953 Y21.730 E14.6702
G1 X29.536 Y21.730 E14.6858
G1 X25.710 Y21.353 E14.8296
G1 X25.301 Y21.271 E14.8453
G1 X21.622 Y20.155 E14.9891
G1 X21.236 Y19.996 E15.0047
G1 X17.846 Y18.183 E15.1486
G1 X17.499 Y17.951 E15.1642
G1 X14.527 Y15.513 E15.3080
G1 X14.232 Y15.217 E15.3236
G1 X11.793 Y12.246 E15.4675
G1 X11.561 Y11.899 E15.4831
G1 X9.752 Y8.513 E15.6267
G1 X9.704 Y8.399 E15.6314
G1 X8.684 Y11.761 E15.7629
G1 X8.524 Y12.147 E15.7785
G1 X5.833 Y17.181 E15.9921
G1 X5.601 Y17.528 E16.0077
G1 X1.980 Y21.940 E16.2213
G1 X1.685 Y22.236 E16.2369
G1 X-2.727 Y25.857 E16.4505
G1 X-3.074 Y26.089 E16.4661
G1 X-8.108 Y28.779 E16.6797
G1 X-8.494 Y28.939 E16.6953
G1 X-13.956 Y30.596 E16.9089
G1 X-14.366 Y30.678 E16.9245
G1 X-20.047 Y31.237 E17.1381
G1 X-20.464 Y31.237 E17.1537
G1 X-26.145 Y30.678 E17.3673
G1 X-26.554 Y30.596 E17.3829
G1 X-32.016 Y28.939 E17.5965
G1 X-32.402 Y28.779 E17.6121
G1 X-37.436 Y26.089 E17.8257
G1 X-37.783 Y25.857 E17.8413
G1 X-42.196 Y22.236 E18.0549
G1 X-42.491 Y21.940 E18.0705
G1 X-46.112 Y17.528 E18.2841
G1 X-46.344 Y17.181 E18.2997
G1 X-49.035 Y12.147 E18.5133
G1 X-49.195 Y11.761 E18.5289
G1 X-50.852 Y6.299 E18.7425
G1 X-50.933 Y5.889 E18.7581
G1 X-51.492 Y0.209 E18.9717
G1 X-51.492 Y-0.209 E18.9873
G1 X-50.933 Y-5.889 E19.2009
G1 X-50.852 Y-6.299 E19.2165
G1 X-49.195 Y-11.761 E19.4301
G1 X-49.035 Y-12.147 E19.4457
G1 X-46.344 Y-17.181 E19.6593
G1 X-46.112 Y-17.528 E19.6750
G1 X-42.491 Y-21.940 E19.8885
G1 X-42.196 Y-22.236 E19.9042
G1 X-37.783 Y-25.857 E20.1177
G1 X-37.436 Y-26.089 E20.1334
G1 X-32.402 Y-28.779 E20.3469
G1 X-32.016 Y-28.939 E20.3626
G1 X-26.554 Y-30.596 E20.5761
G1 X-26.145 Y-30.678 E20.5918
G1 X-20.464 Y-31.237 E20.8054
G1 X-20.047 Y-31.237 E20.8210
G1 X-14.366 Y-30.678 E21.0346
G1 X-13.956 Y-30.596 E21.0502
G1 X-8.494 Y-28.939 E21.2638
G1 X-8.108 Y-28.779 E21.2794
G1 X-3.074 Y-26.089 E21.4930
G1 X-2.727 Y-25.857 E21.5086
G1 X1.685 Y-22.236 E21.7222
G1 X1.980 Y-21.940 E21.7378
G1 X5.601 Y-17.528 E21.9514
G1 X5.833 Y-17.181 E21.9670
G1 X8.524 Y-12.147 E22.1806
G1 X8.684 Y-11.761 E22.1962
G1 X9.704 Y-8.399 E22.3277
G1 X9.749 Y-8.508 E22.3321
G1 E21.3321 F1200
; feature inner perimeter
G1 X5.474 Y-5.118 F7200
G1 E22.3321 F1200
G1 X5.978 Y0.000 E22.5245 F945
G1 X5.474 Y5.118 E22.7169
G1 X3.981 Y10.039 E22.9094
G1 X1.557 Y14.575 E23.1018
G1 X-1.705 Y18.550 E23.2942
G1 X-5.681 Y21.812 E23.4866
G1 X-10.216 Y24.237 E23.6791
G1 X-15.137 Y25.729 E23.8715
G1 X-20.255 Y26.233 E24.0639
G1 X-25.373 Y25.729 E24.2563
G1 X-30.294 Y24.237 E24.4488
G1 X-34.830 Y21.812 E24.6412
G1 X-38.805 Y18.550 E24.8336
G1 X-42.068 Y14.575 E25.0261
G1 X-44.492 Y10.039 E25.2185
G1 X-45.985 Y5.118 E25.4109
G1 X-46.489 Y0.000 E25.6033
G1 X-45.985 Y-5.118 E25.7958
G1 X-44.492 Y-10.039 E25.9882
G1 X-42.068 Y-14.575 E26.1806
G1 X-38.805 Y-18.550 E26.3730
G1 X-34.830 Y-21.812 E26.5655
G1 X-30.294 Y-24.237 E26.7579
G1 X-25.373 Y-25.729 E26.9503
G1 X-20.255 Y-26.233 E27.1428
G1 X-15.137 Y-25.729 E27.3352
G1 X-10.216 Y-24.237 E27.5276
G1 X-5.681 Y-21.812 E27.7200
G1 X-1.705 Y-18.550 E27.9125
G1 X1.557 Y-14.575 E28.1049
G1 X3.981 Y-10.039 E28.2973
G1 X5.474 Y-5.118 E28.4897
; feature outer perimeter
G1 X5.967 Y-5.216 F7200
G1 X6.481 Y0.000 E28.6859 F630
G1 X5.967 Y5.216 E28.8820
G1 X4.445 Y10.231 E29.0781
G1 X1.975 Y14.854 E29.2742
G1 X-1.350 Y18.905 E29.4703
G1 X-5.402 Y22.230 E29.6664
G1 X-10.024 Y24.701 E29.8625
G1 X-15.039 Y26.222 E30.0586
G1 X-20.255 Y26.736 E30.2547
G1 X-25.471 Y26.222 E30.4509
G1 X-30.487 Y24.701 E30.6470
G1 X-35.109 Y22.230 E30.8431
G1 X-39.160 Y18.905 E31.0392
G1 X-42.485 Y14.854 E31.2353
G1 X-44.956 Y10.231 E31.4314
G1 X-46.478 Y5.216 E31.6275
G1 X-46.991 Y0.000 E31.8236
G1 X-46.478 Y-5.216 E32.0198
G1 X-44.956 Y-10.231 E32.2159
G1 X-42.485 Y-14.854 E32.4120
G1 X-39.160 Y-18.905 E32.6081
G1 X-35.109 Y-22.230 E32.8042
G1 X-30.487 Y-24.701 E33.0003
G1 X-25.471 Y-26.222 E33.1964
G1 X-20.255 Y-26.736 E33.3925
G1 X-15.039 Y-26.222 E33.5886
G1 X-10.024 Y-24.701 E33.7848
G1 X-5.402 Y-22.230 E33.9809
G1 X-1.350 Y-18.905 E34.1770
G1 X1.975 Y-14.854 E34.3731
G1 X4.445 Y-10.231 E34.5692
G1 X5.967 Y-5.216 E34.7653
; feature inner perimeter
G1 X-14.113 Y-1.223 F7200
G1 X-14.481 Y-2.419 E34.8121 F945
G1 X-15.048 Y-3.479 E34.8571
G1 X-15.827 Y-4.428 E34.9031
G1 X-16.776 Y-5.207 E34.9490
G1 X-17.859 Y-5.786 E34.9949
G1 X-19.033 Y-6.142 E35.0409
G1 X-20.255 Y-6.263 E35.0868
G1 X-21.477 Y-6.142 E35.1327
G1 X-22.652 Y-5.786 E35.1787
G1 X-23.735 Y-5.207 E35.2246
G1 X-24.684 Y-4.428 E35.2706
G1 X-25.463 Y-3.479 E35.3165
G1 X-26.029 Y-2.419 E35.3615
G1 X-26.397 Y-1.223 E35.4083
G1 X-26.518 Y0.000 E35.4543
G1 X-26.397 Y1.223 E35.5003
G1 X-26.029 Y2.419 E35.5471
G1 X-25.463 Y3.479 E35.5921
G1 X-24.684 Y4.428 E35.6380
G1 X-23.735 Y5.207 E35.6840
G1 X-22.652 Y5.786 E35.7299
G1 X-21.477 Y6.142 E35.7758
G1 X-20.255 Y6.263 E35.8218
G1 X-19.033 Y6.142 E35.8677
G1 X-17.859 Y5.786 E35.9136
G1 X-16.776 Y5.207 E35.9596
G1 X-15.827 Y4.428 E36.0055
G1 X-15.048 Y3.479 E36.0515
G1 X-14.481 Y2.419 E36.0964
G1 X-14.113 Y1.223 E36.1433
G1 X-13.993 Y0.000 E36.1893
G1 X-14.113 Y-1.223 E36.2353
; feature outer perimeter
G1 X-14.606 Y-1.124 F7200
G1 X-14.945 Y-2.226 E36.2784 F630
G1 X-15.466 Y-3.200 E36.3197
G1 X-16.182 Y-4.073 E36.3620
G1 X-17.055 Y-4.789 E36.4042
G1 X-18.051 Y-5.322 E36.4465
G1 X-19.132 Y-5.650 E36.4887
G1 X-20.255 Y-5.760 E36.5310
G1 X-21.379 Y-5.650 E36.5732
